src/images/icons/icon-bike.svg

<svg width="32" height="32" viewBox="0 0 32 32" fill="none" xmlns="http://www.w3.org/2000/svg">
<path fill-rule="evenodd" clip-rule="evenodd" d="M12 20C12 23.3137 9.31371 26 6 26C2.68629 26 0 23.3137 0 20C0 16.6863 2.68629 14 6 14C9.31371 14 12 16.6863 12 20ZM9 20C9 21.6569 7.65685 23 6 23C4.34315 23 3 21.6569 3 20C3 18.3431 4.34315 17 6 17C7.65685 17 9 18.3431 9 20Z" fill="#197BFF"/>
<path fill-rule="evenodd" clip-rule="evenodd" d="M32 20C32 23.3137 29.3137 26 26 26C22.6863 26 20 23.3137 20 20C20 16.6863 22.6863 14 26 14C29.3137 14 32 16.6863 32 20ZM29 20C29 21.6569 27.6569 23 26 23C24.3431 23 23 21.6569 23 20C23 18.3431 24.3431 17 26 17C27.6569 17 29 18.3431 29 20Z" fill="#197BFF"/>
<path fill-rule="evenodd" clip-rule="evenodd" d="M17.5 5C16.9538 5 16.4508 5.29688 16.1868 5.77503C15.9229 6.25318 15.9396 6.83702 16.2307 7.29922L18.5608 11H12.3494L12.3278 10.9641C12.9986 10.8145 13.5 10.2158 13.5 9.5C13.5 8.67157 12.8284 8 12 8H7C6.17157 8 5.5 8.67157 5.5 9.5C5.5 10.3284 6.17157 11 7 11H8.8508L9.73239 12.4693L4.79655 19.1047C4.30211 19.7694 4.44013 20.7091 5.10483 21.2036C5.76953 21.698 6.70919 21.56 7.20363 20.8953L11.4017 15.2516L14.7139 20.7718C14.9849 21.2236 15.4732 21.5 16.0001 21.5C16.527 21.5 17.0152 21.2236 17.2863 20.7718L20.9104 14.7317L24.7307 20.7992C25.172 21.5003 26.0982 21.7107 26.7992 21.2693C27.5003 20.828 27.7107 19.9018 27.2694 19.2008L20.217 8H24C24.2761 8 24.5 8.22386 24.5 8.5C24.5 9.32843 25.1716 10 26 10C26.8284 10 27.5 9.32843 27.5 8.5C27.5 6.567 25.933 5 24 5H17.5ZM14.1494 14L16.0001 17.0845L17.8508 14H14.1494Z" fill="#B2D3FF"/>
</svg>

<svg xmlns="http://www.w3.org/2000/svg" width="32" height="32" fill="none"><path fill="#197BFF" fill-rule="evenodd" d="M12 20a6 6 0 1 1-12 0 6 6 0 0 1 12 0Zm-3 0a3 3 0 1 1-6 0 3 3 0 0 1 6 0ZM32 20a6 6 0 1 1-12 0 6 6 0 0 1 12 0Zm-3 0a3 3 0 1 1-6 0 3 3 0 0 1 6 0Z" clip-rule="evenodd"/><path fill="#B2D3FF" fill-rule="evenodd" d="M17.5 5a1.5 1.5 0 0 0-1.27 2.3l2.33 3.7h-6.21l-.022-.036A1.5 1.5 0 0 0 12 8H7a1.5 1.5 0 1 0 0 3h1.85l.882 1.47-4.935 6.635a1.5 1.5 0 0 0 2.407 1.79l4.198-5.643 3.312 5.52a1.5 1.5 0 0 0 2.572 0l3.624-6.04 3.82 6.067a1.5 1.5 0 1 0 2.54-1.598L20.216 8H24a.5.5 0 0 1 .5.5 1.5 1.5 0 0 0 3 0A3.5 3.5 0 0 0 24 5h-6.5Zm-3.35 9L16 17.084 17.85 14h-3.7Z" clip-rule="evenodd"/></svg>
